app/images/icon/qualities/8.svg

<svg width="84" height="76" viewBox="0 0 84 76" fill="none" xmlns="http://www.w3.org/2000/svg">
<path fill-rule="evenodd" clip-rule="evenodd" d="M65.5608 1.61023C60.5282 -1.37009 54.0262 0.217385 51.1623 5.23282L36.4375 31.0239L25.7624 28.9936C26.3042 22.3886 21.7401 16.2555 15.1225 14.9976C8.13466 13.6701 1.50976 18.2799 0.322261 25.2964C-0.863464 32.3124 3.83765 39.0779 10.8264 40.4069C15.6218 41.3186 20.2465 39.4316 23.0592 35.8913L36.1338 38.3768L29.576 49.8622C25.0342 49.6948 20.5889 51.966 18.1828 56.1783C14.6778 62.3183 16.8314 70.2508 22.9906 73.8993C29.152 77.5477 36.986 75.5285 40.491 69.3904C43.8099 63.577 42.0529 56.1569 36.6272 52.2878L41.9812 42.9088L71.3362 48.4897C77.0456 49.5756 82.4765 45.6913 83.4457 39.9593L47.5601 33.1381L65.5608 1.61023ZM15.8536 34.2262C12.535 35.7469 8.56922 34.2464 6.99608 30.8749C5.42296 27.5033 6.83817 23.5369 10.1566 22.0162C13.476 20.4951 17.441 21.996 19.0142 25.3675C20.5873 28.7391 19.173 32.7051 15.8536 34.2262ZM23.1497 65.5165C24.7228 68.888 28.6887 70.3885 32.0073 68.8678C35.3267 67.3467 36.7409 63.3806 35.1679 60.0091C33.5947 56.6376 29.6296 55.1367 26.3102 56.6578C22.9916 58.1786 21.5765 62.1449 23.1497 65.5165Z" fill="#FFC59E"/>
</svg>

<svg width="84" height="76" fill="none" xmlns="http://www.w3.org/2000/svg"><path fill-rule="evenodd" clip-rule="evenodd" d="M65.56 1.61C60.529-1.37 54.027.217 51.163 5.233l-14.724 25.79-10.676-2.03c.542-6.604-4.022-12.737-10.64-13.995a12.57 12.57 0 00-14.8 10.298c-1.185 7.016 3.516 13.782 10.504 15.11 4.796.913 9.42-.974 12.233-4.515l13.075 2.486-6.558 11.485c-4.542-.167-8.987 2.104-11.393 6.316-3.505 6.14-1.352 14.073 4.808 17.721 6.161 3.649 13.995 1.63 17.5-4.509 3.319-5.813 1.562-13.233-3.864-17.102l5.354-9.38 29.355 5.582c5.71 1.086 11.14-2.799 12.11-8.53L47.56 33.137l18-31.528zM15.855 34.226c-3.319 1.52-7.285.02-8.858-3.351-1.573-3.372-.158-7.338 3.16-8.859 3.32-1.52 7.285-.02 8.858 3.352 1.573 3.371.159 7.337-3.16 8.858zm7.296 31.29c1.573 3.372 5.539 4.872 8.857 3.352 3.32-1.521 4.734-5.487 3.16-8.859-1.572-3.371-5.537-4.872-8.857-3.351-3.318 1.52-4.733 5.487-3.16 8.858z" fill="#FFC59E"/></svg>
